X: 4
T: The Green Fields Of America
R: reel
M: 4/4
L: 1/8
K: Amaj
K:Amaj
d2fd c2ec | ~B3c BAFE| ABAF EFAc | ~B2 cA BAFA |
d2fd c2ec | ~B3c BAFE | A/B/cAF EFAc|~B3c A3 (3Bcd :||
ABcd eAce | aef/g/a ecAc | d2fd c2ec | BdcA BAFE |
ABcd eAce | aef/g/a ecAc | dcBd cBAc | ~B3c A3 z |
ABcd eAce | aef/g/a ecAc | d2fd c2ec | BABc BAFA |
agfe faaf | eAcA BAFE | ABAF EFAc | BABc A3z :||


Tune 695	Setting 13755

